!!!SOCIAL_FUNCTION:	songs of the woman's dance
!!!PDT:	1922
!!!OTL: No_37_Woman's_Dance_Song_(b).krn
!!!REG: Southwest
!!!LANG: Non-Tone
!!!LING_GROUP: Uto-Aztecan
**kern	**kern
*staff2	*staff1
=1-	=1-
*clefF4	*clefF4
*k[b-e-]	*k[b-e-]
*M2/4	*M2/4
12GG^/	16F\LK
.	8.F\J
12r	.
12GG/	.
12GG^/	16F\LK
.	8.F\J
12r	.
12GG/	.
=2	=2
2r	[4f\
.	8.f\L]
.	16c\Jk
=3	=3
2r	16c\LK
.	8.f\J
.	8f\L
.	8c\J
=4	=4
2r	4B-\
.	[4F\
=5	=5
2r	4F\]
.	16A\LK
.	8.G\J
=6!|:	=6!|:
2r	[4B-\
.	8.B-\L]
.	16G\Jk
=7	=7
2r	16G\LK
.	8.B-\J
.	8B-\L
.	8G\J
=8||	=8||
*M3/4	*M3/4
2.r	4F\
.	2C/
=9||	=9||
*M2/4	*M2/4
2r	16F\LK
.	8.F\J
.	16E-\LK
.	8.E-\J
=10	=10
2r	16E-\LK
.	8.F\J
.	16F\LK
.	8.F\J
=11	=11
2r	16G\LK
.	8.F\J
.	16F\LK
.	8.F\J
=12||	=12||
*M3/4	*M3/4
2.r	12F\L
.	12F\
.	12F\J
.	[2F\
=13||	=13||
*M2/4	*M2/4
2r	4F\]
.	16G\LK
.	8.G\J
=14:|!	=14:|!
*M3/4	*M3/4
2.r	12F\L
.	12F\
.	12F\J
.	2F\
==	==
*-	*-
